svgs/sharp-regular/mask-snorkel.svg

<svg xmlns="http://www.w3.org/2000/svg" viewBox="0 0 576 512"><!--! Font Awesome Pro 6.6.0 by @fontawesome - https://fontawesome.com License - https://fontawesome.com/license (Commercial License) Copyright 2024 Fonticons, Inc. --><path d="M448 464c44.2 0 80-35.8 80-80l0-192 48 0 0 192c0 70.7-57.3 128-128 128s-128-57.3-128-128l0-32 48 0 0 32c0 44.2 35.8 80 80 80zM576 160l-48 0 0-128 48 0 0 128zM264 288l-13.2-26.3-13.5-27L232 224l-16 0-5.3 10.7-13.5 27L184 288 48 288 0 288l0-48L0 112 0 64l48 0 352 0 48 0 0 48 0 128 0 48-48 0-136 0zm-90.9-85.5L186.3 176l29.7 0 16 0 29.7 0 13.3 26.5L293.7 240 400 240l0-128L48 112l0 128 106.3 0 18.7-37.5z"/></svg>

<svg xmlns="http://www.w3.org/2000/svg" viewBox="0 0 576 512"><!--! Font Awesome Pro 6.4.2 by @fontawesome - https://fontawesome.com License - https://fontawesome.com/license (Commercial License) Copyright 2023 Fonticons, Inc. --><path d="M576 32V56 160H528V56 32h48zM528 192h48V384c0 70.7-57.3 128-128 128s-128-57.3-128-128v-8V352h48v24 8c0 44.2 35.8 80 80 80s80-35.8 80-80V192zM264 288l-13.2-26.3-13.5-27L232 224H216l-5.3 10.7-13.5 27L184 288H48 0V240 112 64H48 400h48v48V240v48H400 264zm-90.9-85.5L186.3 176H216h16 29.7l13.3 26.5L293.7 240H400V112H48V240H154.3l18.7-37.5z"/></svg>
